X:1
T:Es soll keiner
T:Es soll keiner
T:anonymous
T:Source : Musica Poëtica/collected by Johann Andreas Erbst---Nürnberg---J.Dümler---1643. Editor : André Vierendeels (26/03/15). Notes : Original clefs : F3, C3, C1 Editorial accidentals above the staff Original text middle German
T:Kanon in epidiapente post tactum - Author ad Zoilum
C:Johann Andreas Herbst
%%score [ 1 2 3 ]
L:1/8
Q:1/4=120
M:2/2
K:C
V:1 treble nm="Soprano" snm="S"
V:2 treble-8 nm="Tenor" snm="T"
V:3 bass nm="Baritone" snm="B"
V:1
 z8 | z8 | D4 E4 | ^FG A4 ^G2 | A3 G ^F4 | E4 ^F4 | G3 ^F E4 | D4 z2 d2- | d2 ^c2 d4 | %9
w: ||Es soll|kei- * * ner|kein _ Sach|ver- la-||chen, er|_ könn dann|
 z2 e2 d2 c2 | B4 ^c4 | d4 z4 | z2 A2 ^F2 G2 | E4 ^F4 | G3 F E2 A2 | D4 E4 | F4 z2 G2 | z2 A4 B2 | %18
w: sol- che bes-|ser ma-|chen:|wie da mein|Sprich- wort|laut: _ _ leich-|ter ver-|acht: [als-|nach] ge-|
 G8 |] %19
w: macht.|
V:2
 z8 | G4 A4 | Bc d4 ^c2 |"^-natural" d3 c B4 | A4 B4 | c3 B A4 | G4 z2 g2- |"^#" g2 f2 g4 | %8
w: |Es soll|kei- * * ner|kein _ Sach|ver- la-||chen, er|_ könn dann|
 z2 a2 g2 f2 |"^#" e4 f4 | g4 z4 | z2 d2 B2 c2 | A4 B4 | c3 B A2 d2 | G4 A4 | B4 z2 c2 | z2 A2 G4 | %17
w: sol- che bes-|ser ma-|chen:|wie da mein|Sprich- wort|laut: _ _ leich-|ter ver-|acht: als|als nach|
 A2 c4 d2 | e8 |] %19
w: ge- macht. _|_|
V:3
"^-natural" C,4 D,4 | E,F, G,4 ^F,2 |"^-natural" G,3 F, E,4 | D,4 E,4 | F,3 E, D,4 | C,4 z2 C2- | %6
w: Es soll|kei- * * ner|kein _ Sach|ver- la-||chen, er|
 C2 B,2 C4 | z2 D2 C2 B,2 | A,4 B,4 | C4 z4 | z2 G,2 E,2 F,2 | D,4 E,4 | F,3 E, D,2 G,2 | C,4 D,4 | %14
w: _ könn dann|sol- che bes-|ser ma-|che:|wie da mein|Sprich- wort|laut: _ _ leich-|ter ver-|
 E,4 z2 F,2 | z2 D,2 C,4 | D,2 F,4 E,2 | F,2 A,E, F,D, G,2 | C,8 |] %19
w: cht: als|nach ge-|mcht, nach- ge-|macht, nach _ _ _ ge-|macht.|

